X:189
T:Gr\"oistampin
R:sl\"angpolska
H:efter Karl W\"ast (f 1876) fr{\aa}n Replot
H:jfr #34, #79, #230
A:\"Osterbotten, Finland
Z:id:hn-sp-189
M:3/4
L:1/16
K:Dm
d4 ^c4 d4 | e3d ^c2d2 e4 | f2ef g2fg a3g |1 f2e2 d2^c2 A4 :|
[2 f2e2 f2e2 d4 || f3e d^cdf a2f2 | f2ed ed^cd e4 | f3e d^cdf a2f2 |
f2e2 d2^c2 A4 | d4 ^c4 d4 | e3d ^c2d2 e4 | f2ef g2fg a3g |
f2e2 f2e2 d4 ||

